!!!!SEGMENT: pl-sa--217-a-vi-21--003_pichler-johann-melchior--salve-regina-adagio-ad-te-clamamus.krn
!!!cenid: 17xx:1774
!!!COM: Pichler, Johann Melchior
!!!COM-rismID: pe41011479
!!!CDT: <1695/02/19-
!!!CNT: German
!!!OPR: Salve Regina
!!!OTL: Adagio - Ad te clamamus
!!!OMV: 003
!!!PDT:
!!!AGN: Sacred
!!!SMS-siglum: PL-SA
!!!SMS-shelfmark: 217/A VI 21
!!!SMS-shelfwork: 001-003 M
!!!SMS-variant:
!!!SMS-altvar:
!!!NIFC-rismSourceID: 1001030015
!!!NIFC-islandoraID:
!!!URL-pdf-islandora:
!!!URL-scan: https://bc.bdsandomierz.pl/dlibra/publication/1573/edition/1541/content @EN{Scan on Cyfrowa Biblioteka Diecezjalna w Sandomierzu} @PL{Skany w portalu Cyfrowa Biblioteka Diecezjalna w Sandomierzu}
!!!ONB-nifc: UWAGA: części Salve Regina: 1. Andante molto – Salve Regina, 2. Allegro – Vita dulcedo, 3. Adagio – Ad te clamamus, 4. Allegro – Eja ergo, 5. Adagio – Et Jesum benedictum
!!!OMD: Adagio
!!!AIN: 1 organ 1 soprn 2 violn
!!!key: e
**kern	**fba	**kern	**dynam	**kern	**dynam	**kern	**text
*part4	*part4	*part3	*part3	*part2	*part2	*part1	*part1
*staff4	*staff4	*staff3	*	*staff2	*	*staff1	*staff1
*I"Organo.	*	*I"Violino Secondo	*	*I"Violino Primo.	*	*I"Canto Solo.	*
*I'org	*	*I'vl 2	*	*I'vl 1	*	*I'S	*
*Iorgan	*	*Ivioln	*	*Ivioln	*	*Isoprn	*
*ICklav	*	*ICstr	*	*ICstr	*	*ICvox	*
*clefF4	*	*clefG2	*	*clefG2	*	*clefC1	*
*k[f#]	*	*k[f#]	*	*k[f#]	*	*k[f#]	*
*e:	*	*e:	*	*e:	*	*e:	*
*M3/8	*	*M3/8	*	*M3/8	*	*M3/8	*
=1	=1	=1	=1	=1	=1	=1	=1
!LO:TX:a:t=Adagio.	!	!LO:TX:a:t=Adagio.	!	!LO:TX:a:B:t=adagio.	!	!LO:TX:a:B:t=adagio.	!
4E\	.	4g/	.	8b\L	.	1.r	.
.	.	.	.	8ee\	.	.	.
8G\	6	8b/	.	[8ee\J	.	.	.
=2	=2	=2	=2	=2	=2	=2	=2
[4.B\	4#r:3	(8g/L	.	8ee\L]	.	.	.
.	.	8f#/)	.	8dd#X\	.	.	.
.	.	8d#X/J	.	8b\J	.	.	.
=3	=3	=3	=3	=3	=3	=3	=3
8B\L]	2_	4e/	.	[4.cc\	.	.	.
8A\	.	.	.	.	.	.	.
8F#\J	5	8a/	.	.	.	.	.
=4	=4	=4	=4	=4	=4	=4	=4
[4.G\	4 3	4dn/	.	8cc\L]	.	.	.
.	.	.	.	8b\	.	.	.
.	.	8B/	.	8g\J	.	.	.
=5	=5	=5	=5	=5	=5	=5	=5
8G\L]	2	4c#X/	.	[4.a/	.	2.r	.
8F#\	.	.	.	.	.	.	.
8D#X\J	5	8f#/	.	.	.	.	.
=6	=6	=6	=6	=6	=6	=6	=6
4E\	43	8B/	.	8a/]	.	.	.
.	.	[4e/	.	4g/	.	.	.
8C/	.	.	.	.	.	.	.
=7	=7	=7	=7	=7	=7	=7	=7
8AA/	6 5	8e/L]	.	8f#/	.	4.r	.
.	.	.	.	(<8qqg/	.	.	.
4BB/	4#r:3	8e/	.	4f#t/)	.	.	.
.	.	8d#X/J	.	.	.	.	.
=8	=8	=8	=8	=8	=8	=8	=8
!	!	!	!LO:DY:b:t=pia.	!LO:TX:t=P:problem=mixed beam	!LO:DY:b:t=piano.	!	!
4EE/	.	8e/L	p	8e/L	p	8b\	Ad
.	.	8g/	.	8ee\	.	8ee\	Te
8G\	6	8b/J	.	[8ee\J	.	8ee\	cla-
=9	=9	=9	=9	=9	=9	=9	=9
[4.B\	4#r:3	(8g/L	.	8ee\L]	.	(8ee\L	-ma-
.	.	8f#/)	.	8dd#X\	.	8dd#X\J)	.
.	.	8d#X/J	.	8b\J	.	8b\	-mus
=10	=10	=10	=10	=10	=10	=10	=10
8B\L]	2_	4e/	.	[4.cc\	.	[4.cc\	e-
8A\	.	.	.	.	.	.	.
8F#\J	5	8a/	.	.	.	.	.
=11	=11	=11	=11	=11	=11	=11	=11
[4.G\	43	4dn/	.	8cc\L]	.	8cc\]	.
.	.	.	.	8b\	.	8b\	-xi-
.	.	8B/	.	8ee\J	.	8ee\	-les
=12	=12	=12	=12	=12	=12	=12	=12
8G\L]	2_	4c#X/	.	[4.a/	.	[4.a\	fi-
8F#\	.	.	.	.	.	.	.
8D#X\J	5	8f#/	.	.	.	.	.
=13	=13	=13	=13	=13	=13	=13	=13
4E\	43	8B/L	.	8a/L]	.	8a\]	.
.	.	8g/	.	16g/L	.	16g\	-li-
.	.	.	.	16a/J	.	16a\	-i
[8Dn/	6	[8f#/J	.	[>8b/J	.	[8b\	e-
!	!	!	!	!	!	!LO:LB:g=original	!
=14	=14	=14	=14	=14	=14	=14	=14
8D/]	.	8f#/]	.	16b\LL]	.	16b\LL]	.
.	.	.	.	16cc\JJ	.	16cc\JJ	.
.	.	.	.	(8qqb/	.	8qqb/	.
4C/	76	4e/	.	4aT/)	.	4aT\	.
!LO:LB:g=original	!	!	!	!	!	!	!
=15	=15	=15	=15	=15	=15	=15	=15
!LO:TX:t=P:problem=mixed beam	!	!LO:TX:t=P:problem=mixed beam	!	!	!	!	!
8BB/L	#_	8d#X/L	.	(8b\L	.	4b\	-vae
8B\	.	(8b\	.	8dd#X\	.	.	.
8A\J	x	8dd#X\J)	.	8ff#\J)	.	8r	.
=16	=16	=16	=16	=16	=16	=16	=16
4G#X\	35	8r	.	8r	.	8b\	ad
.	.	8e/L	.	(8b\L	.	4dd\	Te
*	*	*custos:e	*	*	*	*	*
8E\	7 #	8e/J	.	8ddn\J)	.	.	.
!	!	!LO:LB:g=original	!	!	!	!	!
=17	=17	=17	=17	=17	=17	=17	=17
.	.	.	.	16qqdd/	.	16qqdd/	.
8A\L	3	8e/L	.	(8cc\L	.	8cc\	Sus-
8G#X\	6	8e/J	.	8b\J)	.	8b\	-pi-
8E\J	.	8r	.	8r	.	8r	.
!	!	!	!	!LO:LB:g=original	!	!	!
=18	=18	=18	=18	=18	=18	=18	=18
.	.	.	.	(16qqdd/	.	(16qqdd/	.
8A\L	3	8e/L	.	8cc\L)	.	8cc\)	-ra-
8G#X\	6	8e/J	.	8b\J	.	8b\	-mus
8E\J	.	8r	.	8r	.	8r	.
=19	=19	=19	=19	=19	=19	=19	=19
8A\L	9	(4.cc\	.	8r	.	8cc\	ge-
8Gn\	.	.	.	[4aa\	.	[8cc\L	-men-
8F#\J	5	.	.	.	.	16cc\L]	.
.	.	.	.	.	.	16aa\JJ	.
=20	=20	=20	=20	=20	=20	=20	=20
8G\L	9	(4.b/)	.	4aa\]	.	8b\	-tes
8F#\	.	.	.	.	.	[8b\L	et
8E\J	3	.	.	[8gg\	.	16b\L]	.
!	!	!	!	!	!	!LO:TX:t=P:problem=dźwięk niewidoczny	!
.	.	.	.	.	.	16gg\JJyy	.
!	!	!	!	!	!	!LO:LB:g=original	!
=21	=21	=21	=21	=21	=21	=21	=21
8F#\L	9	4.a/)	.	4gg\]	.	[4a\	flen-
8E\	.	.	.	.	.	.	.
8D#X\J	6 5	.	.	[8ff#\	.	16a\LL]	.
.	.	.	.	.	.	16ff#\JJ	.
=22	=22	=22	=22	=22	=22	=22	=22
4E\	.	4g/	.	8ff#\L]	.	8g/	-tes
.	.	.	.	8ee\	.	4ee\	in
[8G\	6	8ee\	.	8b\J	.	.	.
=23	=23	=23	=23	=23	=23	=23	=23
.	.	.	.	.	.	(16qqb/	.
8G\L]	4# 2#	4.a#X/	.	4.cc#X\	.	8a#X\)	hâc
(8F#\	_	.	.	.	.	8a#\	la-
8D\J)	.	.	.	.	.	8a#\	-chry-
=24	=24	=24	=24	=24	=24	=24	=24
(8D/L	6	(8b\L	.	(8dd\L	.	(8b\L	-ma-
8C#X/	6\	8cc#X\	.	8ee\	.	8cc#X\	.
8BB/J)	3	8dd\J)	.	8ff#\J)	.	8dd\J)	.
=25	=25	=25	=25	=25	=25	=25	=25
!LO:TX:t=P:problem=mixed beam	!	!	!	!	!	!	!
8E\L	6\ 5	8cc#X\	.	8ee\	.	8cc#X\	-rum
.	.	(<8qqb/	.	(8qqdd/	.	(8qqb/	.
8F#\	4	4a#X/)	.	4cc#Xt\)	.	4a#Xt\)	val-
8FF#/J	3#	.	.	.	.	.	.
=26	=26	=26	=26	=26	=26	=26	=26
!LO:TX:t=P:problem=mixed beam	!	!	!	!	!	!	!
8BB/L	3	8b/L	.	(8b\L	.	4b\	-le
8B\	#3_	8f#/	.	8dd#X\	.	.	.
8A\J	x	8f#/J	.	8dd#\J)	.	8r	.
=27	=27	=27	=27	=27	=27	=27	=27
8G\L	6	4g/	.	4.ee\	.	8r	.
8E\	.	.	.	.	.	4ee\	in
8G\J	.	8b/	.	.	.	.	.
!LO:LB:g=original	!	!	!	!	!	!LO:LB:g=original	!
=28	=28	=28	=28	=28	=28	=28	=28
8A\L	3	8r	.	4.ccn\	.	4.cc\	hâc
8E\	6_	8g/L	.	.	.	.	.
8F#\J	x	8a/J	.	.	.	.	.
=29	=29	=29	=29	=29	=29	=29	=29
8G\L	3	8d/L	.	4.b/	.	4.b\	la-
8D\	6_	8f#/	.	.	.	.	.
8E\J	x	8g/J	.	.	.	.	.
=30	=30	=30	=30	=30	=30	=30	=30
8F#\L	3	8c#X/L	.	4.a/	.	4.a\	-chry-
8C#X\	6_	8e/	.	.	.	.	.
8D#X\J	x	8f#/J	.	.	.	.	.
=31	=31	=31	=31	=31	=31	=31	=31
4E\	.	4B/	.	8g/	.	8g/	-ma-
.	.	.	.	[4ee\	.	[4ee\	.
8G\	6	8b/	.	.	.	.	.
=32	=32	=32	=32	=32	=32	=32	=32
[4.B\	4#r:3	(8g/L	.	8ee\L]	.	8ee\L]	.
.	.	8f#/)	.	8dd#X\	.	8dd#X\	.
.	.	8d#X/J	.	8b\J	.	8b\J	.
=33	=33	=33	=33	=33	=33	=33	=33
8B\L]	2_	4e/	.	[4.cc\	.	[4.cc\	.
8A\	.	.	.	.	.	.	.
8F#\J	5	8a/	.	.	.	.	.
!	!	!LO:LB:g=original	!	!	!	!	!
=34	=34	=34	=34	=34	=34	=34	=34
4.D#X\	765	4.f#/	.	8cc\L]	.	8cc\L]	.
.	.	.	.	8b\	.	8b\	.
.	.	.	.	8a\J	.	8a\J	.
!	!	!	!	!LO:LB:g=original	!	!	!
=35	=35	=35	=35	=35	=35	=35	=35
!LO:TX:t=P:problem=mixed beam	!	!	!	!	!	!	!
8E\L	3	(8B/L	.	(8g/L	.	(8g/L	.
8F#\	6\	8A/	.	8f#/	.	8f#/	.
8GG/J	6	8G/J)	.	8e/J)	.	8e/J)	.
=36	=36	=36	=36	=36	=36	=36	=36
!	!	!	!	!	!	!LO:N:xstem:cue	!
8AA/	6 5	4.r	.	4.r	.	16f#/	.
.	.	.	.	.	.	16f#/	-rum
.	.	.	.	.	.	(8qqe/	.
4BB/	4#r:3	.	.	.	.	4d#Xt/)	val-
!	!	!	!	!	!	!LO:LB:g=original	!
=37	=37	=37	=37	=37	=37	=37	=37
!	!	!	!LO:DY:b:t=forte	!	!LO:DY:b:t=forte.	!	!
4E\	.	4g/	f	8b\L	f	4e/	-le.
.	.	.	.	8ee\	.	.	.
8G\	6	8b/	.	[8ee\J	.	8r	.
=38	=38	=38	=38	=38	=38	=38	=38
[4.B\	4#r:3	(8g/L	.	8ee\L]	.	1.r	.
.	.	8f#/)	.	8dd#X\	.	.	.
.	.	8d#X/J	.	8b\J	.	.	.
=39	=39	=39	=39	=39	=39	=39	=39
8B\L]	2_	4e/	.	[4.cc\	.	.	.
8A\	.	.	.	.	.	.	.
8F#\J	x	8a/	.	.	.	.	.
=40	=40	=40	=40	=40	=40	=40	=40
[4.G\	43	4dn/	.	8cc\L]	.	.	.
.	.	.	.	8b\	.	.	.
.	.	8B/	.	8g\J	.	.	.
=41	=41	=41	=41	=41	=41	=41	=41
8G\L]	2_	4c#X/	.	[4.a/	.	.	.
8F#\	.	.	.	.	.	.	.
8D#X\J	x	8f#/	.	.	.	.	.
!LO:LB:g=original	!	!	!	!	!	!	!
=42	=42	=42	=42	=42	=42	=42	=42
4E\	43_	8B/	.	8a/]	.	2.r	.
.	.	[4e/	.	4g/	.	.	.
8C/	x	.	.	.	.	.	.
=43	=43	=43	=43	=43	=43	=43	=43
8AA/	6 5	8e/L]	.	8f#/	.	.	.
.	.	.	.	(<8qqg/	.	.	.
4BB/	4#:3	8e/	.	4f#t/)	.	.	.
.	.	8d#X/J	.	.	.	.	.
=44	=44	=44	=44	=44	=44	=44	=44
!LO:TX:b:t=Seque Eja ergo.\nV.S.	!	!LO:TX:b:t=Seque Eja ergo.\nV.S.	!	!LO:TX:b:t=Seque Eja ergo\nV.	!	!	!
4.EE;/	.	4.e;/	.	4.e;>/	.	4.r	.
==	==	==	==	==	==	==	==
*-	*-	*-	*-	*-	*-	*-	*-
!!!system-decoration: [(s1)][(s2,s3)][(s4)]
!!!RDF**kern: < = below
!!!RDF**kern: > = above
!!!RDF**kern: t = "t-"
!!!RDF**kern: T = "t-"
!!!ENC: Tomasz Grochalski
!!!END: 2021-02-07
!!!ENC: Marta Chmielewska
!!!END: 2022-01-11
